vendor/shopware/storefront/Resources/app/storefront/dist/assets/icon/default/square.svg

<svg xmlns="http://www.w3.org/2000/svg" width="24" height="24" viewBox="0 0 24 24">
  <path fill="#758CA3" fill-rule="evenodd" d="M3,2 C2.44771525,2 2,2.44771525 2,3 L2,21 C2,21.5522847 2.44771525,22 3,22 L21,22 C21.5522847,22 22,21.5522847 22,21 L22,3 C22,2.44771525 21.5522847,2 21,2 L3,2 Z M3,-1.32486795e-15 L21,-1.32486795e-15 C22.6568542,-6.09131886e-16 24,1.34314575 24,3 L24,21 C24,22.6568542 22.6568542,24 21,24 L3,24 C1.34314575,24 1.9661902e-15,22.6568542 -4.4408921e-16,21 L-1.97215226e-31,3 C-6.46995335e-16,1.34314575 1.34314575,-1.39726555e-16 3,-1.32486795e-15 Z"/>
</svg>

<svg xmlns="http://www.w3.org/2000/svg" width="24" height="24" viewBox="0 0 24 24"><path fill="#758CA3" fill-rule="evenodd" d="M3 2c-.5523 0-1 .4477-1 1v18c0 .5523.4477 1 1 1h18c.5523 0 1-.4477 1-1V3c0-.5523-.4477-1-1-1H3zm0-2h18c1.6569 0 3 1.3431 3 3v18c0 1.6569-1.3431 3-3 3H3c-1.6569 0-3-1.3431-3-3V3c0-1.6569 1.3431-3 3-3z"/></svg>
